X:1
T:The Gallant Forty Twa
M:6/8
L:1/4
K:C
 C D/2| E E/2 E E/2| E D/2 C E/2| G G/2 G E/2| G3/2- G G/2| A A/2|\
 A A/2| A/2 G- G E/4E/4| E D/2 D E/2| D3/2- D G/2| A A/2 A A/2| A G/2|\
 G G/2| G G/2G/2-F/2 E/2| G3/2- G G,/2| C C/2 C D/2| E E/2 E E/2| D D/2|\
 C B,/2| C3/2 G3/2| C C/2 C E/2| G3/2 G3/2| A A/2 c c/2| G3/2- G z/2|\
 G G/2 G A/2| G E/2 C3/2| D D/2 D E/2| D3/2 z G/2| A A/2 A A/2| A G/2 G E/2|\
 G G/2 G E/2| G3/2- G/2G/2 G/2| C C/2 C D/2| E E/2 E E/2| D D/2 C B,/2|\
 C3/2||
